images/illustrations/cloud_migration.svg

<svg width="72" height="40" viewBox="0 0 72 40" fill="none" xmlns="http://www.w3.org/2000/svg">
<path d="M65.8414 28.9294C68.697 28.9294 71 26.3587 71 23.1537C71 19.9488 68.697 17.3781 65.8414 17.3781C65.8106 17.3781 65.7799 17.3781 65.7492 17.3781C65.8721 16.8773 65.9642 16.3432 65.9642 15.7756C65.9642 12.5707 63.6612 10 60.8055 10C58.6868 10 56.8751 11.4356 56.0768 13.5054C55.1863 12.7042 54.0809 12.2368 52.8526 12.2368C50.1198 12.2368 47.8782 14.6405 47.7247 17.6786C47.2334 17.5117 46.7114 17.4115 46.1587 17.4115C43.303 17.4115 41 19.9822 41 23.1871C41 26.1918 43.8864 28.896 46.5885 28.9628C51.9007 29.0629 65.8414 28.9294 65.8414 28.9294Z" stroke="white" stroke-width="2" stroke-miterlimit="10"/>
<path d="M11 13L37 13" stroke="#FF0033" stroke-width="2" stroke-miterlimit="10"/>
<path d="M11 20L37 20" stroke="#FF0033" stroke-width="2" stroke-miterlimit="10"/>
<path d="M11 27H36.6091" stroke="#FF0033" stroke-width="2" stroke-miterlimit="10"/>
<path d="M58 1H1V39H58" stroke="#FF0033" stroke-width="2" stroke-miterlimit="10"/>
</svg>

<svg width="72" height="40" fill="none" xmlns="http://www.w3.org/2000/svg"><path d="M65.841 28.93c2.856 0 5.159-2.571 5.159-5.776 0-3.205-2.303-5.776-5.159-5.776h-.092c.123-.5.215-1.035.215-1.602 0-3.205-2.303-5.776-5.158-5.776-2.12 0-3.93 1.436-4.73 3.505-.89-.8-1.995-1.268-3.223-1.268-2.733 0-4.975 2.403-5.128 5.442a4.843 4.843 0 00-1.566-.267c-2.856 0-5.159 2.57-5.159 5.775 0 3.005 2.886 5.709 5.589 5.776 5.312.1 19.252-.034 19.252-.034z" stroke="#fff" stroke-width="2" stroke-miterlimit="10"/><path d="M11 13h26m-26 7h26m-26 7h25.61M58 1H1v38h57" stroke="#F03" stroke-width="2" stroke-miterlimit="10"/></svg>
